X: 09033
T: DIANE'S HORNPIPE
C: Bob McQuillen 15 Mar 92
B: Bob's Note Book 9 #33
R: hornpipe, reel
Z: 2019 John Chambers <jc:trillian.mit.edu>
M: C
L: 1/8
K: D
ag \
| f2df edBd | A2AG FDFA | BAFA dfag | f2e2 e2ag |
| f2df edBd | A2AG FDFA | dfaf gecd | e2d2 d2 :|
|: dc \
| B2Bd fafd | Bcde f2fe | d2B2 Bded | c2A2 A2dc |
| B2Bd fafd | Bcde f2df | afdB Aceg | f2d2 d2 :|
%%begintext align
%% Diane Gooodman is from Hillsboro, NH. If you
%% mail her a letter, she'll get it right off;
%% She works in the Post Office! She also calls
%% dances and pay the fiddle, so you know she
%% needs her own tune. I'm so glad I could
%% find one for her!
%%endtext

%%sep 1 1 500

%%sep 1 1 500

